X:571
T:Come By The Hills
Z:Jack Campin, http://www.campin.me.uk/
F:Jack Campin's Nine-Note Tunebook
% last edit 07-03-2013
M:3/4
L:1/4
Q:1/4=132
K:F
z   |A> G A|G F D|C2  C|D F F|F2
C   |F> G A|B A G|A2  F|D F A|G2
c   |c> A G|F> GA|B c d|c A F|G2
F/G/|A> G A|G F D|C2  C|D F F|F2|]

